X: 104
T: Missa Pascale / Gloria
N: Derived from Rue1023b-Missa_Pascale-Gloria.krn
C: Pierre de la Rue
%%abc-version 2.0
%%abcx-abcm2ps-target-version 5.9.1 (29 Sep 2008)
%%abc-creator hum2abc beta
%%abcx-conversion-date 2019/02/17 08:01:14
%%abc-edited-by Jesse Rodin
%%abc-edited-by Chris Gage 04-16-2013
%%abcx-initial-encoding-date 2013/08/01/
%%humdrum-veritas 133317159
%%humdrum-veritas-data 2774239767
%%linebreak <none>
%%barnumbers 0
L: 1/4
M: 2/1
Q: 1/2=120
V: 1 clef=treble
V: 2 clef=treble-8
V: 3 clef=treble-8
V: 4 clef=treble-8
V: 5 clef=bass
K: C
[V:1] G8 | 
[V:2] z8 | 
[V:3] z8 | 
[V:4] z8 | 
[V:5] z8 | 
[V:1] B4c4 | 
[V:2] z8 | 
[V:3] z8 | 
[V:4] z8 | 
[V:5] z8 | 
[V:1] d4d2d2- | 
[V:2] G8 | 
[V:3] z8 | 
[V:4] z8 | 
[V:5] z8 | 
[V:1] d2cBA4 | 
[V:2] B4c4 | 
[V:3] z8 | 
[V:4] z8 | 
[V:5] z8 | 
[V:1] z4B4 | 
[V:2] d2d4cB | 
[V:3] z8 | 
[V:4] z8 | 
[V:5] z8 | 
[V:1] c4A4 | 
[V:2] A8 | 
[V:3] z8 | 
[V:4] z8 | 
[V:5] z8 | 
[V:1] G4z2G2- | 
[V:2] z4B4 | 
[V:3] z8 | 
[V:4] z8 | 
[V:5] z8 | 
[V:1] G2A4c2- | 
[V:2] c4A4 | 
[V:3] z8 | 
[V:4] z8 | 
[V:5] z8 | 
[V:1] c2B3AGF | 
[V:2] G4z2G2 | 
[V:3] z8 | 
[V:4] z8 | 
[V:5] z8 | 
[V:1] EDA4G2- | 
[V:2] A2c4B2- | 
[V:3] z8 | 
[V:4] z8 | 
[V:5] z8 | 
[V:1] G2^FEF4 | 
[V:2] B2AGA4 | 
[V:3] z8 | 
[V:4] z8 | 
[V:5] z4D,4 | 
[V:1] G8- | 
[V:2] G8- | 
[V:3] z8 | 
[V:4] z8 | 
[V:5] E,4G,4- | 
[V:1] G8 | 
[V:2] G8 | 
[V:3] z8 | 
[V:4] z4G4 | 
[V:5] G,2F,2E,2D,2 | 
[V:1] z8 | 
[V:2] z8 | 
[V:3] z8 | 
[V:4] A4c4- | 
[V:5] C,2B,,2A,,3B,, | 
[V:1] z8 | 
[V:2] z8 | 
[V:3] z8 | 
[V:4] c2BABAc2 | 
[V:5] C,2D,4E,2- | 
[V:1] z8 | 
[V:2] z8 | 
[V:3] z8 | 
[V:4] B2A4^G2 | 
[V:5] E,D,C,2B,,4 | 
[V:1] z8 | 
[V:2] z8 | 
[V:3] z8 | 
[V:4] A8 | 
[V:5] A,,4z2D,2 | 
[V:1] z8 | 
[V:2] z8 | 
[V:3] z8 | 
[V:4] z4A4 | 
[V:5] E,4F,4 | 
[V:1] z8 | 
[V:2] z8 | 
[V:3] z8 | 
[V:4] B4c4 | 
[V:5] G,3F,E,4 | 
[V:1] z8 | 
[V:2] z8 | 
[V:3] z8 | 
[V:4] d8 | 
[V:5] D,2G,3F,F,2 | 
[V:1] z8 | 
[V:2] z8 | 
[V:3] z8 | 
[V:4] d4B4 | 
[V:5] G,2G,,4D,2- | 
[V:1] z8 | 
[V:2] z8 | 
[V:3] z8 | 
[V:4] B2AGA4 | 
[V:5] D,2C,B,,C,2D,2 | 
[V:1] z8 | 
[V:2] z8 | 
[V:3] z8 | 
[V:4] B8 | 
[V:5] G,,4z2D,2 | 
[V:1] z8 | 
[V:2] z8 | 
[V:3] z8 | 
[V:4] z2G2A2c2- | 
[V:5] E,2G,4F,E, | 
[V:1] z8 | 
[V:2] z8 | 
[V:3] z8 | 
[V:4] c2BAB2c2- | 
[V:5] F,4G,2A,2- | 
[V:1] z8 | 
[V:2] z8 | 
[V:3] z8 | 
[V:4] cBAGA4 | 
[V:5] A,G,G,4^F,2 | 
[V:1] z4B4 | 
[V:2] d8 | 
[V:3] z8 | 
[V:4] G8- | 
[V:5] G,4G,,4 | 
[V:1] G4B4- | 
[V:2] d4d4 | 
[V:3] z8 | 
[V:4] G8- | 
[V:5] G,,8- | 
[V:1] B4d4- | 
[V:2] g6fe | 
[V:3] z8 | 
[V:4] G8 | 
[V:5] G,,8 | 
[V:1] d2cBA2B2 | 
[V:2] d2e2f2e2- | 
[V:3] z8 | 
[V:4] z8 | 
[V:5] z8 | 
[V:1] c2B3AA2 | 
[V:2] e2d2c4 | 
[V:3] z8 | 
[V:4] z8 | 
[V:5] z8 | 
[V:1] B8- | 
[V:2] B8 | 
[V:3] G8- | 
[V:4] z4D4 | 
[V:5] G,,8 | 
[V:1] B8 | 
[V:2] d4d4 | 
[V:3] G8 | 
[V:4] D4D4- | 
[V:5] G,,4G,,4- | 
[V:1] z8 | 
[V:2] B4e4 | 
[V:3] G8 | 
[V:4] D4E4 | 
[V:5] G,,4C,4 | 
[V:1] z4G4 | 
[V:2] d3cB4 | 
[V:3] B8 | 
[V:4] F4G4 | 
[V:5] D,4E,4 | 
[V:1] A4A4 | 
[V:2] A8- | 
[V:3] c8- | 
[V:4] E6F2 | 
[V:5] A,,8 | 
[V:1] A4c4- | 
[V:2] A8 | 
[V:3] c8- | 
[V:4] E2A4GF | 
[V:5] A,,8 | 
[V:1] c2BAG2A2 | 
[V:2] G8 | 
[V:3] c8 | 
[V:4] E4E4 | 
[V:5] C,4C,4 | 
[V:1] B4A4 | 
[V:2] z8 | 
[V:3] d8 | 
[V:4] D8 | 
[V:5] G,,2G,3^F,F,2 | 
[V:1] z4G4 | 
[V:2] d4d2d2 | 
[V:3] B8 | 
[V:4] z4G4 | 
[V:5] G,4G,,4 | 
[V:1] A4c4- | 
[V:2] edcBA4 | 
[V:3] c8- | 
[V:4] E2F4ED | 
[V:5] z4A,,4 | 
[V:1] c2BAG2A2 | 
[V:2] e6dc | 
[V:3] c8 | 
[V:4] E4G4- | 
[V:5] C,6B,,A,, | 
[V:1] B2c2d4 | 
[V:2] B2A2z2B2- | 
[V:3] d8 | 
[V:4] G2FED4 | 
[V:5] G,,2A,,2B,,2G,,2- | 
[V:1] B2c4BA | 
[V:2] B2A2c4 | 
[V:3] e8- | 
[V:4] z2A4GF | 
[V:5] G,,2A,,3B,,C,D, | 
[V:1] G2c2B2c2- | 
[V:2] B2A2B2e2- | 
[V:3] e8 | 
[V:4] G2E2G4 | 
[V:5] E,2A,,2E,3F, | 
[V:1] cBB4A2 | 
[V:2] efg3^f^f2 | 
[V:3] d8- | 
[V:4] G4A4 | 
[V:5] G,2G,,2D,4 | 
[V:1] B8 | 
[V:2] g4z2G2 | 
[V:3] d8 | 
[V:4] G4B4 | 
[V:5] G,,8 | 
[V:1] z8 | 
[V:2] A3Bc2d2 | 
[V:3] z8 | 
[V:4] c2A4GF | 
[V:5] z8 | 
[V:1] z8 | 
[V:2] e2f2g2f2- | 
[V:3] z8 | 
[V:4] E2D2E2F2 | 
[V:5] z8 | 
[V:1] z8 | 
[V:2] f2e3dd2 | 
[V:3] z8 | 
[V:4] G2A2F4 | 
[V:5] z4D,4 | 
[V:1] z8 | 
[V:2] e8 | 
[V:3] z8 | 
[V:4] E2A4GF | 
[V:5] A,,3B,,C,2D,2 | 
[V:1] z8 | 
[V:2] z8 | 
[V:3] z8 | 
[V:4] G2A2E2A2- | 
[V:5] E,2F,2G,2F,2- | 
[V:1] z8 | 
[V:2] z8 | 
[V:3] z8 | 
[V:4] A2G2F4 | 
[V:5] F,2E,4D,2 | 
[V:1] z8 | 
[V:2] z8 | 
[V:3] z8 | 
[V:4] E3FG2A2 | 
[V:5] E,6D,C, | 
[V:1] z8 | 
[V:2] z8 | 
[V:3] z8 | 
[V:4] B2c2d2c2- | 
[V:5] B,,2A,,2B,,2C,2 | 
[V:1] B4c4 | 
[V:2] z8 | 
[V:3] z8 | 
[V:4] c2B3AA2 | 
[V:5] D,2E,2C,4 | 
[V:1] d6c2 | 
[V:2] z8 | 
[V:3] d8 | 
[V:4] B8- | 
[V:5] B,,8 | 
[V:1] B2A2G4 | 
[V:2] z8 | 
[V:3] e8 | 
[V:4] B8 | 
[V:5] E,8 | 
[V:1] z2d4B2- | 
[V:2] z8 | 
[V:3] d8- | 
[V:4] z8 | 
[V:5] B,,8 | 
[V:1] B2AGA2B2 | 
[V:2] z8 | 
[V:3] d8 | 
[V:4] z8 | 
[V:5] z8 | 
[V:1] E3FG2A2 | 
[V:2] A6GF | 
[V:3] c6BA | 
[V:4] z8 | 
[V:5] z8 | 
[V:1] B2c2d2c2- | 
[V:2] E2e2d2e2 | 
[V:3] G2A2B2c2 | 
[V:4] z8 | 
[V:5] z8 | 
[V:1] c2B3AA2 | 
[V:2] B4e4 | 
[V:3] d3ec4 | 
[V:4] z8 | 
[V:5] z8 | 
[V:1] B8 | 
[V:2] d4d4 | 
[V:3] B8 | 
[V:4] z4G4 | 
[V:5] G,,8 | 
[V:1] z4G4 | 
[V:2] d4e4- | 
[V:3] B4c4- | 
[V:4] G3FE3D | 
[V:5] G,,4C,3B,, | 
[V:1] A4B4 | 
[V:2] e2dcB4- | 
[V:3] c4d4- | 
[V:4] C4G4- | 
[V:5] A,,4G,,4- | 
[V:1] B4c3B | 
[V:2] B4e4 | 
[V:3] d2cBA4 | 
[V:4] G4E4- | 
[V:5] G,,4A,,4- | 
[V:1] A4G4 | 
[V:2] e4e2e2- | 
[V:3] c4B4 | 
[V:4] E4G4 | 
[V:5] A,,4E,4 | 
[V:1] z2A4c2 | 
[V:2] e2d4c2 | 
[V:3] A8 | 
[V:4] E2F3GA2 | 
[V:5] C,2D,3C,A,,2 | 
[V:1] B2A2c3B | 
[V:2] d2A2e4- | 
[V:3] d4c4- | 
[V:4] D2F2E4- | 
[V:5] G,,2D,2A,,4 | 
[V:1] AGG4^F2 | 
[V:2] e4d4 | 
[V:3] c2B2A4 | 
[V:4] E4F4 | 
[V:5] C,4D,4 | 
[V:1] G4d4- | 
[V:2] B8 | 
[V:3] G8 | 
[V:4] D4z2d2- | 
[V:5] G,,8 | 
[V:1] d2B2c2d2- | 
[V:2] z4z2d2- | 
[V:3] z8 | 
[V:4] d2G4A2 | 
[V:5] G,3F,E,2D,2 | 
[V:1] d2B3AA2 | 
[V:2] d2e2f4 | 
[V:3] z8 | 
[V:4] B4c4 | 
[V:5] G,4F,4 | 
[V:1] B8 | 
[V:2] d4g4 | 
[V:3] z4G4 | 
[V:4] B8 | 
[V:5] G,8 | 
[V:1] z8 | 
[V:2] f2e4c2- | 
[V:3] A4c4- | 
[V:4] z8 | 
[V:5] z4C,3D, | 
[V:1] z8 | 
[V:2] c2BAG4 | 
[V:3] c4c4 | 
[V:4] z8 | 
[V:5] E,2F,4E,2 | 
[V:1] z8 | 
[V:2] A4z4 | 
[V:3] c6BA | 
[V:4] z8 | 
[V:5] F,2E,D,C,2D,2 | 
[V:1] z8 | 
[V:2] z8 | 
[V:3] G2A2B2c2 | 
[V:4] z8 | 
[V:5] E,2F,2G,2E,2 | 
[V:1] z8 | 
[V:2] z8 | 
[V:3] d3cBAc2- | 
[V:4] z8 | 
[V:5] F,2G,3F,E,D, | 
[V:1] z8 | 
[V:2] z8 | 
[V:3] c2c4B2- | 
[V:4] z8 | 
[V:5] F,4E,4 | 
[V:1] z4B4 | 
[V:2] d8 | 
[V:3] B2A3^G^G2 | 
[V:4] z8 | 
[V:5] D,2C,2B,,4 | 
[V:1] c4c4- | 
[V:2] c6B2 | 
[V:3] A4A4 | 
[V:4] e8- | 
[V:5] A,,8 | 
[V:1] c2BAG4- | 
[V:2] A2GFE4- | 
[V:3] c8 | 
[V:4] e4e4 | 
[V:5] A,,4C,4- | 
[V:1] G2A2B2c2 | 
[V:2] E2F2G2A2 | 
[V:3] G8- | 
[V:4] e8 | 
[V:5] C,4C,4 | 
[V:1] d2G4c2- | 
[V:2] B4e4 | 
[V:3] G8- | 
[V:4] d4c4 | 
[V:5] G,,4C,4 | 
[V:1] c2BAB4 | 
[V:2] g8 | 
[V:3] G8 | 
[V:4] d8 | 
[V:5] G,,8 | 
[V:1] c8 | 
[V:2] e2g4fe | 
[V:3] z8 | 
[V:4] c4G4 | 
[V:5] C,8 | 
[V:1] z4G4 | 
[V:2] d4c4 | 
[V:3] z8 | 
[V:4] B4c4 | 
[V:5] z8 | 
[V:1] B4c4 | 
[V:2] z8 | 
[V:3] z8 | 
[V:4] d2e4dc | 
[V:5] z8 | 
[V:1] d3cBABA | 
[V:2] z8 | 
[V:3] z8 | 
[V:4] B2d4D2 | 
[V:5] z8 | 
[V:1] c4B2A2- | 
[V:2] z8 | 
[V:3] z8 | 
[V:4] E2F2G2A2 | 
[V:5] z8 | 
[V:1] A2G3^FF2 | 
[V:2] z8 | 
[V:3] z8 | 
[V:4] B2c2A4 | 
[V:5] z8 | 
[V:1] G4d4- | 
[V:2] d8 | 
[V:3] G8 | 
[V:4] B8- | 
[V:5] G,,8- | 
[V:1] d4B4 | 
[V:2] d4d4 | 
[V:3] G8 | 
[V:4] B8 | 
[V:5] G,,4B,,4 | 
[V:1] c4A4- | 
[V:2] c8- | 
[V:3] A8 | 
[V:4] z4E4 | 
[V:5] A,,8 | 
[V:1] A4c4 | 
[V:2] c4A4 | 
[V:3] A8 | 
[V:4] F4F4 | 
[V:5] F,,8 | 
[V:1] B4z2D2 | 
[V:2] B3cd4 | 
[V:3] G6G2- | 
[V:4] D4D2G2- | 
[V:5] G,,8 | 
[V:1] G3AB2c2 | 
[V:2] B2d4c2 | 
[V:3] G2B4A2- | 
[V:4] G2D4F2- | 
[V:5] z2G,,4A,,2 | 
[V:1] d2G2c4 | 
[V:2] B2G2A4 | 
[V:3] A2G3^F^F2 | 
[V:4] F2EDC4 | 
[V:5] B,,2C,2A,,4 | 
[V:1] B8- | 
[V:2] B2D2G3A | 
[V:3] G8- | 
[V:4] D8- | 
[V:5] G,,8- | 
[V:1] B8- | 
[V:2] B2c2d4 | 
[V:3] G8- | 
[V:4] D8- | 
[V:5] G,,8- | 
[V:1] B8 ||  
[V:2] d8 ||  
[V:3] G8 ||  
[V:4] D8 ||  
[V:5] G,,8 ||  
[V:1]  [K:C] [K:clef=treble][M:2/1]z8 | 
[V:2]  [K:C] [K:clef=treble-8][M:2/1]z8 | 
[V:3]  [K:C] [K:clef=treble-8][M:2/1]z8 | 
[V:4]  [K:C] [K:clef=treble-8][M:2/1]G8 | 
[V:5]  [K:C] [K:clef=bass][M:2/1]z4C,4- | 
[V:1] z8 | 
[V:2] z8 | 
[V:3] z8 | 
[V:4] A4B4 | 
[V:5] C,4D,4 | 
[V:1] z8 | 
[V:2] z8 | 
[V:3] z8 | 
[V:4] B8 | 
[V:5] E,4E,4 | 
[V:1] z8 | 
[V:2] z8 | 
[V:3] z8 | 
[V:4] z4B4 | 
[V:5] E,4D,4 | 
[V:1] z8 | 
[V:2] z8 | 
[V:3] z8 | 
[V:4] A4c4- | 
[V:5] F,4C,3D, | 
[V:1] z8 | 
[V:2] z8 | 
[V:3] z8 | 
[V:4] c2B2A4 | 
[V:5] E,F,G,4F,2 | 
[V:1] z8 | 
[V:2] z8 | 
[V:3] z8 | 
[V:4] G4z2B2- | 
[V:5] G,4F,2G,2- | 
[V:1] z8 | 
[V:2] z8 | 
[V:3] z8 | 
[V:4] B2AGA2B2 | 
[V:5] G,2F,E,D,4 | 
[V:1] z8 | 
[V:2] z8 | 
[V:3] z8 | 
[V:4] c3BA2G2- | 
[V:5] z2C,2D,2E,2- | 
[V:1] z8 | 
[V:2] z8 | 
[V:3] z8 | 
[V:4] G2FEF2G2 | 
[V:5] E,2D,C,D,2E,2 | 
[V:1] z8 | 
[V:2] z8 | 
[V:3] z8 | 
[V:4] A2c2B2A2- | 
[V:5] F,3E,D,2C,2- | 
[V:1] z8 | 
[V:2] z8 | 
[V:3] z8 | 
[V:4] AGG4^F2 | 
[V:5] C,B,,A,,G,,A,,4 | 
[V:1] z4G4- | 
[V:2] z8 | 
[V:3] z8 | 
[V:4] G8 | 
[V:5] G,,8 | 
[V:1] G4A4 | 
[V:2] c8 | 
[V:3] z8 | 
[V:4] z8 | 
[V:5] z8 | 
[V:1] B4B4 | 
[V:2] d4e4 | 
[V:3] z8 | 
[V:4] z8 | 
[V:5] z8 | 
[V:1] z2B2B4- | 
[V:2] e4z2e2 | 
[V:3] z8 | 
[V:4] z8 | 
[V:5] z8 | 
[V:1] B4B4 | 
[V:2] e4d4 | 
[V:3] z8 | 
[V:4] z8 | 
[V:5] z8 | 
[V:1] A4c4- | 
[V:2] f4c3d | 
[V:3] z8 | 
[V:4] z8 | 
[V:5] z8 | 
[V:1] c2B2A4 | 
[V:2] efg4f2 | 
[V:3] z8 | 
[V:4] z8 | 
[V:5] z8 | 
[V:1] G4z2G2- | 
[V:2] g2fed4 | 
[V:3] G8 | 
[V:4] B4B2B2- | 
[V:5] G,,6G,,2 | 
[V:1] G2G2G3A | 
[V:2] z2e4e2 | 
[V:3] G8 | 
[V:4] B2c4BA | 
[V:5] G,,2C,3D,E,F, | 
[V:1] B2c4BA | 
[V:2] B2e4c2 | 
[V:3] G8 | 
[V:4] G3FE4 | 
[V:5] G,2C,2C,4 | 
[V:1] B4c4 | 
[V:2] d4e4 | 
[V:3] G8 | 
[V:4] D4z4 | 
[V:5] G,,4C,4 | 
[V:1] d6d2 | 
[V:2] d8 | 
[V:3] B8- | 
[V:4] D4D4 | 
[V:5] B,,2G,,2G,,4- | 
[V:1] d3cB2A2 | 
[V:2] d4d4 | 
[V:3] B8 | 
[V:4] G4G4 | 
[V:5] G,,4G,,4 | 
[V:1] G4c4 | 
[V:2] e8 | 
[V:3] c8 | 
[V:4] E4G4- | 
[V:5] C,8 | 
[V:1] B4d4 | 
[V:2] d2B4B2 | 
[V:3] d8 | 
[V:4] G4G4 | 
[V:5] G,,6A,,B,, | 
[V:1] c2B3AA2 | 
[V:2] A2B2c4 | 
[V:3] e8- | 
[V:4] E8 | 
[V:5] C,2G,,2A,,4 | 
[V:1] B8- | 
[V:2] B8- | 
[V:3] e8 | 
[V:4] z4E3F | 
[V:5] E,8 | 
[V:1] B8 | 
[V:2] B8 | 
[V:3] d8 | 
[V:4] G2A2B4 | 
[V:5] B,,8 | 
[V:1] z8 | 
[V:2] z8 | 
[V:3] z8 | 
[V:4] c4c2B2- | 
[V:5] E,6D,2 | 
[V:1] z4B4 | 
[V:2] z8 | 
[V:3] z8 | 
[V:4] BAA4^G2 | 
[V:5] C,2B,,A,,B,,4 | 
[V:1] c6B2 | 
[V:2] z4A3B | 
[V:3] z8 | 
[V:4] A8 | 
[V:5] A,,8 | 
[V:1] A2G2F4 | 
[V:2] cde4d2 | 
[V:3] z8 | 
[V:4] z8 | 
[V:5] z8 | 
[V:1] E4z2E2 | 
[V:2] e4g4 | 
[V:3] z8 | 
[V:4] z8 | 
[V:5] z8 | 
[V:1] G3AB2c2 | 
[V:2] e4z2e2 | 
[V:3] z8 | 
[V:4] z8 | 
[V:5] z8 | 
[V:1] B2c4B2- | 
[V:2] e4d2B2 | 
[V:3] z8 | 
[V:4] z8 | 
[V:5] z8 | 
[V:1] B2A2B2B2 | 
[V:2] c4B4 | 
[V:3] z8 | 
[V:4] z8 | 
[V:5] z8 | 
[V:1] B2d3cB2 | 
[V:2] z2B2B2B2 | 
[V:3] z8 | 
[V:4] z8 | 
[V:5] z8 | 
[V:1] A2d4c2 | 
[V:2] d3cB2A2 | 
[V:3] z8 | 
[V:4] z8 | 
[V:5] z8 | 
[V:1] B2A3GG2- | 
[V:2] G2d2cBAG | 
[V:3] z8 | 
[V:4] z8 | 
[V:5] z8 | 
[V:1] G2^F2G4 | 
[V:2] A4G4 | 
[V:3] z8 | 
[V:4] z8 | 
[V:5] z8 | 
[V:1] z8 | 
[V:2] z8 | 
[V:3] d8- | 
[V:4] B8 | 
[V:5] G,,8 | 
[V:1] z8 | 
[V:2] z8 | 
[V:3] d8 | 
[V:4] B4B4 | 
[V:5] G,,4G,,4 | 
[V:1] z8 | 
[V:2] z8 | 
[V:3] c8- | 
[V:4] A4E2A2- | 
[V:5] A,,8 | 
[V:1] z8 | 
[V:2] z8 | 
[V:3] c8 | 
[V:4] A2GFE4 | 
[V:5] A,,4A,,4 | 
[V:1] z8 | 
[V:2] z8 | 
[V:3] A8 | 
[V:4] z2c4A2 | 
[V:5] A,,3B,,C,2D,2- | 
[V:1] z8 | 
[V:2] z8 | 
[V:3] z8 | 
[V:4] B2c2d3c | 
[V:5] D,2E,2F,2D,2- | 
[V:1] z8 | 
[V:2] z8 | 
[V:3] d8 | 
[V:4] BAA4^G2 | 
[V:5] D,2C,2B,,4 | 
[V:1] z8 | 
[V:2] z8 | 
[V:3] c4d4 | 
[V:4] A8 | 
[V:5] A,,4D,4 | 
[V:1] z8 | 
[V:2] z8 | 
[V:3] e4A2B2 | 
[V:4] z4d4 | 
[V:5] C,4D,4 | 
[V:1] z8 | 
[V:2] z8 | 
[V:3] G2A4GF | 
[V:4] c4d4 | 
[V:5] E,2F,4E,D, | 
[V:1] z8 | 
[V:2] z8 | 
[V:3] E2A2E2A2- | 
[V:4] e8 | 
[V:5] C,2A,,2C,4 | 
[V:1] z8 | 
[V:2] z8 | 
[V:3] A2GFG4 | 
[V:4] d6B2 | 
[V:5] B,,4G,,4 | 
[V:1] z8 | 
[V:2] z8 | 
[V:3] E2F3ED2- | 
[V:4] c2A2B2d2- | 
[V:5] A,,2D,3C,B,,A,, | 
[V:1] G4A4 | 
[V:2] z8 | 
[V:3] D2G3^F^F2 | 
[V:4] d2B2c4 | 
[V:5] G,,2B,,2A,,4 | 
[V:1] B4B4- | 
[V:2] d4d2d2- | 
[V:3] G8- | 
[V:4] B8- | 
[V:5] G,,8- | 
[V:1] B4B4- | 
[V:2] dcBAG2e2 | 
[V:3] G8 | 
[V:4] B8 | 
[V:5] G,,8 | 
[V:1] B4A4 | 
[V:2] d2d2f4 | 
[V:3] z8 | 
[V:4] z8 | 
[V:5] z8 | 
[V:1] c4G4 | 
[V:2] c4z2g2- | 
[V:3] z8 | 
[V:4] z8 | 
[V:5] z8 | 
[V:1] z2d4c2 | 
[V:2] g2f2g2e2 | 
[V:3] z8 | 
[V:4] z8 | 
[V:5] z8 | 
[V:1] d2B2c2BA | 
[V:2] f2edc3d | 
[V:3] z8 | 
[V:4] z8 | 
[V:5] z8 | 
[V:1] G2C2G3A | 
[V:2] e6c2 | 
[V:3] z8 | 
[V:4] z8 | 
[V:5] z8 | 
[V:1] B2G2A2B2 | 
[V:2] d2e2c2d2 | 
[V:3] z8 | 
[V:4] z8 | 
[V:5] z8 | 
[V:1] c2d2B2d2- | 
[V:2] e2d4B2 | 
[V:3] z8 | 
[V:4] z8 | 
[V:5] z8 | 
[V:1] dcB4A2 | 
[V:2] d2e2c4 | 
[V:3] z8 | 
[V:4] z8 | 
[V:5] z8 | 
[V:1] B8 | 
[V:2] B8 | 
[V:3] z8 | 
[V:4] d6c2 | 
[V:5] z4G,4- | 
[V:1] z8 | 
[V:2] z8 | 
[V:3] z8 | 
[V:4] B2A2G2c2- | 
[V:5] G,2F,2E,4 | 
[V:1] z8 | 
[V:2] z8 | 
[V:3] z8 | 
[V:4] cBB4A2 | 
[V:5] D,2E,2C,4 | 
[V:1] z8 | 
[V:2] B8 | 
[V:3] z8 | 
[V:4] G2FED2E2 | 
[V:5] B,,6C,2 | 
[V:1] B8 | 
[V:2] B4B4 | 
[V:3] z8 | 
[V:4] z2G4F2 | 
[V:5] D,2E,4D,2 | 
[V:1] B4B4 | 
[V:2] B2d3cB2- | 
[V:3] z8 | 
[V:4] G2D2G4 | 
[V:5] E,2B,,2E,4 | 
[V:1] B4B4 | 
[V:2] B2A3^G^G2 | 
[V:3] z8 | 
[V:4] F2E4D2 | 
[V:5] D,2C,2B,,4 | 
[V:1] c8 | 
[V:2] A4e4 | 
[V:3] A8- | 
[V:4] E8- | 
[V:5] A,,8- | 
[V:1] c8 | 
[V:2] e2c3def | 
[V:3] A8 | 
[V:4] E8 | 
[V:5] A,,8 | 
[V:1] B4B4 | 
[V:2] g6fe | 
[V:3] G8 | 
[V:4] z4B4 | 
[V:5] z8 | 
[V:1] G3ABcdB | 
[V:2] d4g4- | 
[V:3] G4G4 | 
[V:4] B4d4 | 
[V:5] z8 | 
[V:1] c2B4A2 | 
[V:2] g4f4 | 
[V:3] E4F4 | 
[V:4] c4c4 | 
[V:5] z8 | 
[V:1] B4B4 | 
[V:2] d4d4 | 
[V:3] G8 | 
[V:4] B4B4 | 
[V:5] z4B,,4 | 
[V:1] c6c2 | 
[V:2] c8 | 
[V:3] A8- | 
[V:4] E6E2 | 
[V:5] A,,6A,,2 | 
[V:1] A4d4- | 
[V:2] d8 | 
[V:3] A8 | 
[V:4] F8 | 
[V:5] D,8 | 
[V:1] d2cBc2B2- | 
[V:2] z8 | 
[V:3] G4A2G2 | 
[V:4] D4E4 | 
[V:5] B,,4A,,2E,2 | 
[V:1] B2A3^GG2 | 
[V:2] z4e4 | 
[V:3] c2d2B4 | 
[V:4] z4E4- | 
[V:5] F,2D,2E,4 | 
[V:1] A4c4 | 
[V:2] e2e4A2 | 
[V:3] A8 | 
[V:4] E8- | 
[V:5] A,,8 | 
[V:1] B2G2d4- | 
[V:2] B2c2d2g2 | 
[V:3] G4G4 | 
[V:4] E4D4 | 
[V:5] z2C,2B,,2G,,2- | 
[V:1] d4d2d2 | 
[V:2] d2g4f2 | 
[V:3] B4A4 | 
[V:4] D8- | 
[V:5] G,,A,,B,,C,D,4 | 
[V:1] B2d3cB2 | 
[V:2] g2fed4 | 
[V:3] G8 | 
[V:4] D8 | 
[V:5] G,,8 | 
[V:1] A2B2ABcB | 
[V:2] z8 | 
[V:3] d4c2A2 | 
[V:4] z8 | 
[V:5] z8 | 
[V:1] AGG4^F2 | 
[V:2] z8 | 
[V:3] cBAGA4 | 
[V:4] z8 | 
[V:5] z8 | 
[V:1] G8 | 
[V:2] z8 | 
[V:3] G8 | 
[V:4] d3cBAG2 | 
[V:5] z2G,3F,E,D, | 
[V:1] z4z2d2- | 
[V:2] z8 | 
[V:3] z8 | 
[V:4] A3GFED2- | 
[V:5] C,2D,3C,B,,A,, | 
[V:1] dcBAG2A2- | 
[V:2] g3fedc2 | 
[V:3] z8 | 
[V:4] D2D2E2F2 | 
[V:5] G,,4z4 | 
[V:1] AGFED2A2 | 
[V:2] d2d3cBA | 
[V:3] z8 | 
[V:4] D2G4F2 | 
[V:5] z4z2D,2 | 
[V:1] B3GA2B2 | 
[V:2] G4z2d2 | 
[V:3] G3EF2G2 | 
[V:4] E2DEC2D2 | 
[V:5] G,,A,,B,,C,A,,2G,,2 | 
[V:1] c2A4B2 | 
[V:2] e2f2d4 | 
[V:3] C2A4G2 | 
[V:4] z2F4D2 | 
[V:5] z2D,4B,,2 | 
[V:1] c3AB2c2 | 
[V:2] c4z2e2 | 
[V:3] A3FG2A2 | 
[V:4] E3FD2C2 | 
[V:5] A,,B,,C,D,B,,2A,,2 | 
[V:1] d2B4c2 | 
[V:2] f2g2e3c | 
[V:3] D2G4A2- | 
[V:4] z2G4E2 | 
[V:5] z2E,4A,,2 | 
[V:1] A2B2G2A2- | 
[V:2] d4d2c2- | 
[V:3] A2G4E2 | 
[V:4] F2D4E2 | 
[V:5] D,2G,,2B,,2C,2 | 
[V:1] A2c2B3G | 
[V:2] c2A2B2d2- | 
[V:3] F4G3E | 
[V:4] C4D4 | 
[V:5] A,,4G,,4 | 
[V:1] A2G3^FF2 | 
[V:2] d2c2d4 | 
[V:3] F2G2A4 | 
[V:4] z4A4 | 
[V:5] D,2E,2D,4 | 
[V:1] G8- | 
[V:2] d8- | 
[V:3] G8- | 
[V:4] B4B2G2- | 
[V:5] z4G,,4 | 
[V:1] G8- | 
[V:2] d8- | 
[V:3] G8- | 
[V:4] G2FED4 | 
[V:5] G,,8- | 
[V:1] G8 |]  
[V:2] d8 |]  
[V:3] G8 |]  
[V:4] D8 |]  
[V:5] G,,8 |]  



